_build/images/ac-logomark-circle-border copy 7.svg

<?xml version="1.0" encoding="UTF-8"?>
<svg width="698px" height="698px" viewBox="0 0 698 698" version="1.1" xmlns="http://www.w3.org/2000/svg" xmlns:xlink="http://www.w3.org/1999/xlink">
    <!-- Generator: Sketch 51.1 (57501) - http://www.bohemiancoding.com/sketch -->
    <title>ac-logomark-circle-border copy 7</title>
    <desc>Created with Sketch.</desc>
    <defs></defs>
    <g id="ac-logomark-circle-border-copy-7" stroke="none" stroke-width="1" fill="none" fill-rule="evenodd">
        <g id="new_eM_logo1" transform="translate(92.000000, 92.000000)" fill-rule="nonzero">
            <circle id="Oval" cx="257.5" cy="257.5" r="224.5"></circle>
            <path d="M17.0000002,257.509529 C17.00515,390.329632 124.678694,498 257.5,498 C390.324482,498 498,390.324482 498,257.5 C498,124.675518 390.324482,17 257.519058,16.9999893 C124.748925,17.1488349 17.1539867,124.740601 17.0000002,257.509529 Z" id="Shape" stroke="#FFFFFF" stroke-width="34"></path>
        </g>
        <path d="M217.21978,250.981203 L482,250.981203 C487.522847,250.981203 492,255.458356 492,260.981203 L492,438.426258 C492,443.949105 487.522847,448.426258 482,448.426258 L217,448.426258 C211.477153,448.426258 207,443.949105 207,438.426258 L207,340.349335 C207,334.826487 211.477153,330.349335 217,330.349335 L446.148352,330.349335 C451.671199,330.349335 456.148352,325.872182 456.148352,320.349335 L456.148352,299.770937 C456.148352,294.259407 451.688848,289.786956 446.177341,289.770979 L217.190791,289.10716 C211.679284,289.091182 207.21978,284.618732 207.21978,279.107202 L207.21978,260.981203 C207.21978,255.458356 211.696933,250.981203 217.21978,250.981203 Z M446.395604,366.063621 L253.620879,366.063621 C248.098032,366.063621 243.620879,370.540773 243.620879,376.063621 L243.620879,399.964719 C243.620879,405.487567 248.098032,409.964719 253.620879,409.964719 L446.395604,409.964719 C451.918452,409.964719 456.395604,405.487567 456.395604,399.964719 L456.395604,376.063621 C456.395604,370.540773 451.918452,366.063621 446.395604,366.063621 Z" id="a" fill="#FFFFFF"></path>
    </g>
</svg>

<svg width="698" height="698" xmlns="http://www.w3.org/2000/svg"><g fill="none" fill-rule="evenodd"><g transform="translate(92 92)" fill-rule="nonzero"><circle cx="257.5" cy="257.5" r="224.5"/><path d="M17 257.51C17.005 390.33 124.679 498 257.5 498 390.324 498 498 390.324 498 257.5S390.324 17 257.52 17C124.748 17.149 17.153 124.74 17 257.51z" stroke="#FFF" stroke-width="34"/></g><path d="M217.22 250.981H482c5.523 0 10 4.477 10 10v177.445c0 5.523-4.477 10-10 10H217c-5.523 0-10-4.477-10-10V340.35c0-5.523 4.477-10 10-10h229.148c5.523 0 10-4.477 10-10v-20.578c0-5.512-4.46-9.984-9.97-10l-228.987-.664c-5.512-.016-9.971-4.488-9.971-10v-18.126c0-5.523 4.477-10 10-10zm229.176 115.083H253.62c-5.523 0-10 4.477-10 10v23.9c0 5.524 4.477 10 10 10h192.775c5.522 0 10-4.476 10-10v-23.9c0-5.523-4.478-10-10-10z" fill="#FFF"/></g></svg>
